img/bilet-icon.svg

<svg width="20" height="20" viewBox="0 0 20 20" fill="none" xmlns="http://www.w3.org/2000/svg">
<g clip-path="url(#clip0)">
<path d="M13.6794 7.27964L14.1465 6.81287L14.6133 7.27997L14.1462 7.74674L13.6794 7.27964Z" fill="#292929"/>
<path d="M12.745 6.34547L13.2121 5.87854L13.679 6.34547L13.2121 6.8124L12.745 6.34547Z" fill="#292929"/>
<path d="M11.8109 5.41188L12.2781 4.94495L12.745 5.41188L12.2781 5.87882L11.8109 5.41188Z" fill="#292929"/>
<path d="M15.5472 9.14754L16.0143 8.6806L16.4813 9.14754L16.0143 9.61448L15.5472 9.14754Z" fill="#292929"/>
<path d="M14.6131 8.21356L15.08 7.74646L15.5471 8.21339L15.0802 8.68049L14.6131 8.21356Z" fill="#292929"/>
<path d="M10.7044 13.4969C10.5803 13.4967 10.4668 13.4271 10.4105 13.3166L9.81409 12.147L8.51776 12.352C8.37571 12.3755 8.23463 12.3042 8.16949 12.1759C8.10419 12.0474 8.12967 11.8916 8.23238 11.7907L9.1606 10.8625L8.56629 9.69288C8.50131 9.56534 8.52582 9.41055 8.62708 9.30946C8.72817 9.2082 8.88296 9.1837 9.01033 9.24867L10.1804 9.84315L11.1085 8.9146C11.2094 8.81173 11.3653 8.78625 11.4937 8.85155C11.6222 8.91685 11.6934 9.05777 11.6699 9.19982L11.46 10.4995L12.6299 11.0959C12.7571 11.1611 12.8281 11.3007 12.8055 11.4419C12.7829 11.5832 12.672 11.6938 12.5307 11.716L11.2341 11.9215L11.0306 13.2181C11.0082 13.3593 10.8974 13.4701 10.7562 13.4925C10.7391 13.4954 10.7217 13.4969 10.7044 13.4969ZM9.99967 11.4518C10.1238 11.4518 10.2375 11.5216 10.2939 11.6322L10.5372 12.1099L10.6212 11.5816C10.6436 11.4403 10.7546 11.3296 10.896 11.3072L11.4242 11.223L10.9464 10.9797C10.8189 10.9147 10.7478 10.7752 10.77 10.634L10.8539 10.104L10.476 10.4831C10.3747 10.584 10.2199 10.6085 10.0925 10.5434L9.61432 10.3001L9.85811 10.778C9.92292 10.9054 9.89841 11.0601 9.79732 11.1612L9.41793 11.5409L9.94791 11.4571C9.965 11.4539 9.98226 11.4521 9.99967 11.4518Z" fill="#292929"/>
<path d="M19.7098 6.38579L18.0752 4.75119L17.8418 4.98466C17.5922 5.23828 17.2258 5.33857 16.8818 5.24747C16.5379 5.15621 16.2692 4.88759 16.1781 4.54352C16.087 4.1996 16.1873 3.83312 16.4411 3.58369L16.6746 3.35022L15.04 1.71594C14.6532 1.32898 14.0258 1.32898 13.6389 1.71594L12.4717 2.88328L11.7713 2.18288C11.3843 1.79592 10.7571 1.79592 10.3701 2.18288L0.290223 12.2628C-0.0967409 12.6498 -0.0967409 13.2771 0.290223 13.6639L1.92482 15.2985L2.15813 15.0651C2.55025 14.6907 3.1673 14.6907 3.55926 15.0651C3.94622 15.4519 3.94622 16.0792 3.55926 16.466L3.32579 16.6995L4.96039 18.3344C5.34719 18.7211 5.97423 18.7211 6.36104 18.3344L7.52838 17.1667L8.2291 17.8672C8.6159 18.254 9.24295 18.254 9.62991 17.8672L19.7098 7.78659C20.0968 7.39963 20.0968 6.77227 19.7098 6.38546V6.38579ZM5.89378 17.8668C5.83186 17.9289 5.74786 17.9637 5.66031 17.9637C5.5726 17.9637 5.48859 17.9289 5.42668 17.8668L4.23628 16.6758C4.67033 16.021 4.5831 15.1512 4.02765 14.5957C3.47203 14.0402 2.60217 13.9532 1.94756 14.3874L0.756836 13.197C0.627848 13.068 0.627848 12.859 0.756836 12.7301L10.8371 2.64981C10.899 2.58774 10.983 2.55291 11.0707 2.55291C11.1584 2.55291 11.2424 2.58774 11.3043 2.64981L12.0047 3.35022L3.55894 11.7963C3.1723 12.1831 3.1723 12.8102 3.55894 13.197L5.19321 14.8316L5.42668 14.5981C5.81348 14.2112 6.44085 14.2112 6.82765 14.5981C7.21461 14.9849 7.21461 15.6123 6.82765 15.9991L6.59386 16.2326L7.06112 16.6995L5.89378 17.8668ZM19.2429 7.31998L9.16265 17.3999C9.03366 17.5289 8.82454 17.5289 8.69572 17.3999L7.505 16.2092C7.93775 15.5544 7.84972 14.6855 7.29459 14.1309C6.73929 13.5773 5.87169 13.4898 5.21691 13.9211L4.02587 12.7301C3.89688 12.6012 3.89688 12.3921 4.02587 12.2631L14.1058 2.18288C14.1677 2.12096 14.2519 2.08598 14.3394 2.08598C14.4271 2.08598 14.5111 2.12096 14.573 2.18288L15.7638 3.37166C15.3302 4.02628 15.4176 4.89549 15.9727 5.45079C16.5279 6.00592 17.3972 6.09347 18.0518 5.66007L19.2432 6.85143C19.372 6.98026 19.372 7.18938 19.2432 7.31837L19.2429 7.31998Z" fill="#292929"/>
</g>
<defs>
<clipPath id="clip0">
<rect width="20" height="20" fill="white"/>
</clipPath>
</defs>
</svg>

<svg width="20" height="20" fill="none" xmlns="http://www.w3.org/2000/svg"><g clip-path="url(#clip0)" fill="#292929"><path d="M13.68 7.28l.466-.467.467.467-.467.467-.467-.467zm-.935-.935l.467-.466.467.466-.467.467-.467-.467zm-.935-.933l.468-.467.467.467-.467.467-.467-.467zm3.737 3.736l.467-.467.467.467-.467.466-.467-.466zm-.934-.934l.467-.468.467.467-.467.467-.467-.466zm-3.909 5.283a.33.33 0 01-.293-.18l-.597-1.17-1.296.205a.33.33 0 01-.286-.561l.929-.928-.595-1.17a.33.33 0 01.444-.444l1.17.594.928-.928a.33.33 0 01.562.285l-.21 1.3 1.17.596a.33.33 0 01-.1.62l-1.296.206-.203 1.296a.33.33 0 01-.327.279zM10 11.452a.33.33 0 01.294.18l.243.478.084-.528a.33.33 0 01.275-.275l.528-.084-.478-.243a.33.33 0 01-.176-.346l.084-.53-.378.38a.33.33 0 01-.384.06l-.478-.244.244.478a.33.33 0 01-.06.383l-.38.38.53-.084a.31.31 0 01.052-.005z"/><path d="M19.71 6.386L18.075 4.75l-.233.234a.99.99 0 11-1.4-1.401l.233-.234-1.635-1.634a.99.99 0 00-1.401 0l-1.167 1.167-.7-.7a.99.99 0 00-1.402 0L.29 12.263a.99.99 0 000 1.4L1.925 15.3l.233-.234a1.014 1.014 0 011.401 0 .99.99 0 010 1.401l-.233.233 1.634 1.635a.99.99 0 001.401 0l1.167-1.167.701.7a.99.99 0 001.4 0l10.08-10.08a.99.99 0 000-1.402zM5.894 17.866a.33.33 0 01-.467 0l-1.19-1.19a1.651 1.651 0 00-2.29-2.289l-1.19-1.19a.33.33 0 010-.467l10.08-10.08a.33.33 0 01.467 0l.7.7-8.445 8.446a.99.99 0 000 1.401l1.634 1.635.234-.234A.99.99 0 116.827 16l-.233.234.467.466-1.167 1.168zM19.243 7.32L9.163 17.4a.33.33 0 01-.467 0l-1.191-1.19a1.651 1.651 0 00-2.288-2.289l-1.191-1.19a.33.33 0 010-.468l10.08-10.08a.33.33 0 01.467 0l1.19 1.189a1.651 1.651 0 002.289 2.288l1.191 1.191a.33.33 0 010 .467v.002z"/></g><defs><clipPath id="clip0"><path fill="#fff" d="M0 0h20v20H0z"/></clipPath></defs></svg>
